Hatter-kde/actions/16/go-last.svg

<svg xmlns="http://www.w3.org/2000/svg" viewBox="0 0 16 16">
  <defs id="defs3051">
    <style type="text/css" id="current-color-scheme">
      .ColorScheme-Text {
        color:#363636;
      }
      </style>
  </defs>
 <path style="fill:currentColor;fill-opacity:1;stroke:none" 
     d="M 3.7480469 2 L 3 2.71875 L 7.2988281 6.84375 L 8.5351562 8 L 7.2988281 9.15625 L 3 13.28125 L 3.7480469 14 L 8.046875 9.875 L 10 8 L 3.7480469 2 z M 12 2 L 12 14 L 13 14 L 13 2 L 12 2 z "
     class="ColorScheme-Text"
     />
</svg>

<?xml version="1.0" encoding="UTF-8"?>
<svg viewBox="0 0 16 16" xmlns="http://www.w3.org/2000/svg">
 <defs id="defs3051">
  <style id="current-color-scheme" type="text/css">.ColorScheme-Text {
        color:#363636;
      }</style>
 </defs>
 <path class="ColorScheme-Text" d="m3.748 2-0.74805 0.71875 4.2988 4.125 1.2363 1.1562-1.2363 1.1562-4.2988 4.125 0.74805 0.71875 4.2988-4.125 1.9531-1.875-6.252-6zm8.252 0v12h1v-12h-1z" fill="currentColor"/>
</svg>
